X:1860
T: Fairy Dance
T: Largo's Fairy Dance
O:england
R:reel
C:Niel Gow, Scotland
D:Paddy Moloney & Sean Potts: Tin Whistles.
M:C|
K:D
f2fd f2fd|f2fd cdec|f2fd gfed|1 cABc dcde:|2 cABc defg||
|:a2af b2ba|gfge a2ag|fefa gfed|1 cABc defg:|2 cABc dcde||
"Version 2:"
|:(3faf dg (3faf dg|(3faf dB cdeg|(3faf df gfed|1 cABc dfag:|2 cABc defg||
|:aAdf bagf|gece agfe|fdBd gfed|1 cABc defg:|2 cAGE D3g||


